!!!!SEGMENT: pl-wtm--r-1543--001-002_stefani-jozef--msza-in-f-gloria.krn
!!!cenid: 18xx:1786
!!!COM: Stefani, Józef
!!!COM-rismID: pe30024097
!!!CDT: 1800/04/16-1876/03/19
!!!CNT: Polish
!!!OPR: Msza in F
!!!OTL: Gloria
!!!OMV: 002
!!!PDT:
!!!AGN: Sacred; Mass
!!!OMD: Allegro moderato
!!!YEC: Copyright 2022 Narodowy Instytut Fryderyka Chopina (https://polishscores.org)
!!!YEM: License CC-BY-4.0 (https://creativecommons.org/licenses/by/4.0)
!!!SMS-siglum: PL-Wtm
!!!SMS-shelfmark: R 1543
!!!SMS-shelfwork: 001-002 M
!!!SMS-variant:
!!!SMS-altvar:
!!!NIFC-rismSourceID: 1001120491
!!!NIFC-rismChildID: 1001120491
!!!NIFC-islandoraID: pl-wtm:26483
!!!URL-pdf-islandora: https://repozytorium.nifc.pl/islandora/object/pl-wtm%3A26483/datastream/PDF/view
!!!URL-scan: https://polish.musicsources.pl/pl/lokalizacje/galeria/rekopisy/6344 @EN{Scan on Polish Music Sources Website} @PL{Skany w portalu Dziedzictwo Muzyki Polskiej w otwartym dostępie}
!!!IIIF:
!!!ONB-nifc: UWAGA: części Mszy: 1. Kyrie, 2. Gloria, 3. Graduale, 4. Credo, 5. Offertorium, 6. Sanctus, 7. Agnus Dei, 8. Dona nobis
!!!AIN: 1 alto 1 bass 4 clars 2 cor 1 empty 1 fagot 1 flt 1 oboe 1 organ 1 serp 1 soprn 1 tenor 1 timpa 1 tromp
!!!key:
**kern	**kern	**kern	**text	**kern	**kern	**kern	**text	**kern	**kern	**dynam	**kern	**kern	**dynam	**kern	**dynam	**kern	**dynam	**kern	**dynam	**kern	**dynam	**kern	**dynam	**kern	**dynam	**kern	**dynam	**kern	**dynam	**kern	**dynam
*	*	*group1	*	*group1	*group1	*group1	*	*	*	*	*	*	*	*	*	*	*	*	*	*	*	*	*	*	*	*	*	*	*	*	*
*part18	*part18	*part17	*	*part16	*part15	*part14	*	*part13	*part12	*	*part11	*part10	*	*part9	*	*part8	*	*part7	*	*part6	*	*part5	*	*part4	*	*part3	*	*part2	*	*part1	*
*staff19	*staff18	*staff17	*	*staff16	*staff15	*staff14	*	*staff13	*staff12	*	*staff11	*staff10	*	*staff9	*	*staff8	*	*staff7	*	*staff6	*	*staff5	*	*staff4	*	*staff3	*	*staff2	*	*staff1	*
*Iorgan	*Iempty	*Ibass	*	*Itenor	*Ialto	*Isoprn	*	*Itimpa	*Ifagot	*	*Iempty	*Iserp	*	*Itromp	*	*Icor	*	*Icor	*	*Iclars	*	*Iclars	*	*Iclars	*	*Iclars	*	*Ioboe	*	*Iflt	*
*I"Organo	*	*I"Basso	*	*I"Tenore	*I"Alto	*I"Soprano	*	*I"Timpani	*I"Fagotti	*	*	*I"Tromboni et Serpent	*	*I"Trombe in C.	*	*I"Corni in F.	*	*I"Corni in C.	*	*I"Clarineto 2do	*	*I"Clarineto 1mo in C	*	*I"Clarinetto in C. Obligato	*	*I"in F. Petit Clarinet	*	*I"Oboe	*	*I"Flauto	*
*I'org	*	*I'B	*	*I'T	*I'A	*I'S	*	*I'timp	*I'fag	*	*	*I'trb et serpentone	*	*I'tr in C	*	*I'cor	*	*I'cor in C.	*	*I'cl 2 in C	*	*I'cl 1 in C	*	*I'cl in C obl	*	*I'cl in F	*	*I'ob	*	*I'fl	*
*clefF4	*clefG2	*clefF4	*	*clefC4	*clefG2	*clefG2	*	*clefF4	*clefF4	*	*clefF4	*clefC4	*	*clefG2	*	*clefG2	*	*clefG2	*	*clefG2	*	*clefG2	*	*clefG2	*	*clefG2	*	*clefG2	*	*clefG2	*
*	*	*	*	*	*	*	*	*	*	*	*	*	*	*	*	*ITrd4c7	*	*ITrd0c0	*	*	*	*	*	*	*	*ITrd-3c-5	*	*	*	*	*
*k[]	*k[]	*k[]	*	*k[]	*k[]	*k[]	*	*k[]	*k[]	*	*k[]	*k[]	*	*k[]	*	*k[]	*	*k[]	*	*k[]	*	*k[]	*	*k[]	*	*k[]	*	*k[]	*	*k[]	*
*C:	*C:	*C:	*	*C:	*C:	*C:	*	*C:	*C:	*	*C:	*C:	*	*C:	*	*C:	*	*C:	*	*C:	*	*C:	*	*C:	*	*C:	*	*C:	*	*C:	*
*M4/4	*M4/4	*M4/4	*	*M4/4	*M4/4	*M4/4	*	*M4/4	*M4/4	*	*M4/4	*M4/4	*	*M4/4	*	*M4/4	*	*M4/4	*	*M4/4	*	*M4/4	*	*M4/4	*	*M4/4	*	*M4/4	*	*M4/4	*
*met(c)	*met(c)	*met(c)	*	*met(c)	*met(c)	*met(c)	*	*met(c)	*met(c)	*	*met(c)	*met(c)	*	*met(c)	*	*met(c)	*	*met(c)	*	*met(c)	*	*met(c)	*	*met(c)	*	*met(c)	*	*met(c)	*	*met(c)	*
*>[A,B,B1,B,B1,B,B2,C]	*>[A,B,B1,B,B1,B,B2,C]	*>[A,B,B1,B,B1,B,B2,C]	*	*>[A,B,B1,B,B1,B,B2,C]	*>[A,B,B1,B,B1,B,B2,C]	*>[A,B,B1,B,B1,B,B2,C]	*	*>[A,B,B1,B,B1,B,B2,C]	*>[A,B,B1,B,B1,B,B2,C]	*	*>[A,B,B1,B,B1,B,B2,C]	*>[A,B,B1,B,B1,B,B2,C]	*	*>[A,B,B1,B,B1,B,B2,C]	*	*>[A,B,B1,B,B1,B,B2,C]	*	*>[A,B,B1,B,B1,B,B2,C]	*	*>[A,B,B1,B,B1,B,B2,C]	*	*>[A,B,B1,B,B1,B,B2,C]	*	*>[A,B,B1,B,B1,B,B2,C]	*	*>[A,B,B1,B,B1,B,B2,C]	*	*>[A,B,B1,B,B1,B,B2,C]	*	*>[A,B,B1,B,B1,B,B2,C]	*
*	*	*	*	*	*	*	*	*	*	*	*	*^	*	*^	*	*^	*	*	*	*	*	*	*	*	*	*	*	*	*	*	*
*>A	*>A	*>A	*	*>A	*>A	*>A	*	*>A	*>A	*	*>A	*>A	*	*	*>A	*	*	*>A	*	*	*>A	*	*>A	*	*>A	*	*>A	*	*>A	*	*>A	*	*>A	*
*all\right	*all\right	*all\right	*	*all\right	*all\right	*all\right	*	*all\right	*all\right	*	*all\right	*all\right	*	*	*all\right	*	*	*all\right	*	*	*all\right	*	*all\right	*	*all\right	*	*all\right	*	*all\right	*	*all\right	*	*all\right	*
4G\ 4GG\	4g/	4r	.	4r	4r	4r	.	4GG/	(4GG/	f	4GG/	4G/	4G\	.	4g/	4g\	f	4g/	4g\	.	4g/ 4G/	f	4g/	f	4g/	.	(4g/	f	(4gg\	f	4g/	.	(4gg\	f
=1!|:	=1!|:	=1!|:	=1!|:	=1!|:	=1!|:	=1!|:	=1!|:	=1!|:	=1!|:	=1!|:	=1!|:	=1!|:	=1!|:	=1!|:	=1!|:	=1!|:	=1!|:	=1!|:	=1!|:	=1!|:	=1!|:	=1!|:	=1!|:	=1!|:	=1!|:	=1!|:	=1!|:	=1!|:	=1!|:	=1!|:	=1!|:	=1!|:	=1!|:	=1!|:
*>B	*>B	*>B	*	*>B	*>B	*>B	*	*>B	*>B	*	*>B	*>B	*	*	*>B	*	*	*>B	*	*	*>B	*	*>B	*	*>B	*	*>B	*	*>B	*	*>B	*	*>B	*
*	*^	*	*	*	*	*	*	*	*	*	*	*	*	*	*	*	*	*	*	*	*^	*	*	*	*	*	*	*	*	*	*^	*	*	*
!	!	!	!	!	!	!	!	!	!	!	!	!	!	!	!	!	!	!	!	!	!	!	!	!	!	!	!LO:TX:a:t=col Clari. obli.	!	!	!	!	!	!	!	!	!	!
[1C/ [1CC/	8.cc/L	4e\	8.C/	To-	8.G/	8.e/	8.cc\	To-	4C/	8C/L)	.	4C/	8.c/L	4E\	.	8.cc/L	4e\	.	4g/	4g\	.	4cc/	4ryy	.	4e/	.	8.cc/Lyy	.	8.cc/L)	.	8.ccc\L)	.	8.cc/L	4e\	.	8.ccc\L)	.
.	.	.	.	.	.	.	.	.	.	8C/	.	.	.	.	.	.	.	.	.	.	.	.	.	.	.	.	.	.	.	.	.	.	.	.	.	.	.
.	16g/Jk	.	16C/	-bie	16G/	16e/	16g/	-bie	.	.	.	.	16G/Jk	.	.	16g/Jk	.	.	.	.	.	.	.	.	.	.	16g/Jkyy	.	16g/Jk	.	16gg\Jk	.	16g/Jk	.	.	16gg\Jk	.
.	2ee/ 2g/	4ryy	2.C/	cześć	[2G/	(2g/	(2ee\	cześć	4r	8C/	.	2C/	2e/	2G\	.	2ee/	2g\	.	2g/	2g\	.	2ee/	2c\	.	(2g^>/	.	2ee^<\yy	.	2ee^<\	.	2eee^<\	.	2ee/ 2g^/	2g\	.	2eee\^<	.
.	.	.	.	.	.	.	.	.	.	8C/J	.	.	.	.	.	.	.	.	.	.	.	.	.	.	.	.	.	.	.	.	.	.	.	.	.	.	.
*	*	*	*	*	*	*	*	*	*	*tremolo	*	*	*	*	*	*	*	*	*	*	*	*	*	*	*	*	*	*	*	*	*	*	*	*	*	*	*
.	.	4ryy	.	.	.	.	.	.	2r	8C/L	.	.	.	.	.	.	.	.	.	.	.	.	.	.	.	.	.	.	.	.	.	.	.	.	.	.	.
.	.	.	.	.	.	.	.	.	.	8C/	.	.	.	.	.	.	.	.	.	.	.	.	.	.	.	.	.	.	.	.	.	.	.	.	.	.	.
.	4dd/ 4g/ 4f/	4ryy	.	.	4G/]	4f/)	4dd\)	.	.	8C/	.	4C/	4d/	4F\	.	4dd/	4f\	.	4f/	4f\	.	4dd/	4ryy	.	4f/)	.	4dd\yy	.	4dd\	.	4ddd\	.	4dd/ 4f/	4ryy	.	4ddd\	.
.	.	.	.	.	.	.	.	.	.	8C/J	.	.	.	.	.	.	.	.	.	.	.	.	.	.	.	.	.	.	.	.	.	.	.	.	.	.	.
=2	=2	=2	=2	=2	=2	=2	=2	=2	=2	=2	=2	=2	=2	=2	=2	=2	=2	=2	=2	=2	=2	=2	=2	=2	=2	=2	=2	=2	=2	=2	=2	=2	=2	=2	=2	=2	=2
2.C/] 2.CC/]	4cc/ 4e/	1g\	2C/	To-	2G/	(4e/	(4cc\	To-	4C/	8C/L	.	2.C/	4c/	2E\	.	4cc/	4e\	.	4e/	4e\	.	4cc/ 4c/	4ryy	.	(>4e/	.	(4cc\yy	.	(4cc\	.	4ccc\	.	(4cc/	4e\	.	(4ccc\	.
.	.	.	.	.	.	.	.	.	.	8C/	.	.	.	.	.	.	.	.	.	.	.	.	.	.	.	.	.	.	.	.	.	.	.	.	.	.	.
.	4b/ 4d/	.	.	.	.	4d/)	4b\)	.	4GG/	8C/	.	.	4B/	.	.	4b/	4d\	.	4r	4ryy	.	4r	4ryy	.	4d/	.	4b\yy	.	4b\	.	4r	.	4b/	4d\	.	4bb\	.
.	.	.	.	.	.	.	.	.	.	8C/	.	.	.	.	.	.	.	.	.	.	.	.	.	.	.	.	.	.	.	.	.	.	.	.	.	.	.
.	4cc/ 4e/	.	(4C/	-bie	(4G/	(4e/	(4cc\	-bie	4C/	8C/	.	.	4c/	4D\	.	4cc/	4e\	.	4r	4ryy	.	4r	4ryy	.	4e/	.	4cc\yy	.	4cc\	.	2r	.	4cc/	2e\	.	4ccc\	.
.	.	.	.	.	.	.	.	.	.	8C/J	.	.	.	.	.	.	.	.	.	.	.	.	.	.	.	.	.	.	.	.	.	.	.	.	.	.	.
*	*	*	*	*	*	*	*	*	*	*Xtremolo	*	*	*	*	*	*	*	*	*	*	*	*	*	*	*	*	*	*	*	*	*	*	*	*	*	*	*
4AA/ 4AAA/	4cc#X/ 4e/	.	4AA/)	.	4e\)	4g/)	4cc#X\)	.	4r	8AA/L	.	4AA^/	4c#X/	4E\	.	4cc#X/	4g\	.	4a/ 4A/	4ryy	.	(4ee/	(4cc#X\	.	4g/)	.	4cc#X\)yy	.	4cc#X\)	.	.	.	4cc#X/)	.	.	4ccc#X\	.
.	.	.	.	.	.	.	.	.	.	8AA/J	.	.	.	.	.	.	.	.	.	.	.	.	.	.	.	.	.	.	.	.	.	.	.	.	.	.	.
*	*	*	*	*	*	*	*	*	*	*	*	*	*	*	*	*	*	*	*v	*v	*	*	*	*	*	*	*	*	*	*	*	*	*	*	*	*	*
=3	=3	=3	=3	=3	=3	=3	=3	=3	=3	=3	=3	=3	=3	=3	=3	=3	=3	=3	=3	=3	=3	=3	=3	=3	=3	=3	=3	=3	=3	=3	=3	=3	=3	=3	=3	=3
*	*	*	*	*	*	*	*	*	*	*tremolo	*	*	*	*	*	*	*	*	*	*	*	*	*	*	*	*	*	*	*	*	*	*	*	*	*	*
2.D/ 2.DD/	8.dd/L	4f\	8.D\	wie-	8.d\	8.f/	8.dd\	wie-	1r	8D\L	.	4D\	8.d/L	4F\	.	8.dd/L	4f\	.	4a/ 4A/	.	4dd/)	4dd\)	.	4f/	.	8.dd\Lyy	.	8.dd\L	.	8.ddd\L	.	8.dd/L	4f\	.	8.ddd\L)	.
.	.	.	.	.	.	.	.	.	.	8D\	.	.	.	.	.	.	.	.	.	.	.	.	.	.	.	.	.	.	.	.	.	.	.	.	.	.
.	16a/Jk	.	16D\	-czna	16d\	16f/	16a/	-czna	.	.	.	.	16A/Jk	.	.	16a/Jk	.	.	.	.	.	.	.	.	.	16a\Jkyy	.	16a\Jk	.	16aa\Jk	.	16a/Jk	.	.	16aa\Jk	.
.	2ff\ 2a\ 2f\	4ryy	2D\	chwa-	2d\	2a/	2ff\	chwa-	.	8D\	.	2D\	2f/	2A\	.	2ff/	2a\	.	2a/ 2A/	.	2dd/	2dd\	.	2a^>/	.	2ff^<\yy	.	2ff^<\	.	2fff^<\	.	2ff^/	2a\	.	2fff\	.
.	.	.	.	.	.	.	.	.	.	8D\	.	.	.	.	.	.	.	.	.	.	.	.	.	.	.	.	.	.	.	.	.	.	.	.	.	.
.	.	4ryy	.	.	.	.	.	.	.	8D\	.	.	.	.	.	.	.	.	.	.	.	.	.	.	.	.	.	.	.	.	.	.	.	.	.	.
.	.	.	.	.	.	.	.	.	.	8D\J	.	.	.	.	.	.	.	.	.	.	.	.	.	.	.	.	.	.	.	.	.	.	.	.	.	.
*	*	*	*	*	*	*	*	*	*	*Xtremolo	*	*	*	*	*	*	*	*	*	*	*	*	*	*	*	*	*	*	*	*	*	*	*	*	*	*
4F/ 4FF/	4dd/ 4a/ 4f/	4ryy	4F\	-ła	4f\	4a/	4dd\	-ła	.	8F\L	.	4F\	4d/	4F\	.	4dd/	4f\	.	4a/ 4A/	.	4dd/	4dd\	.	4f/	.	4dd\yy	.	4dd\	.	4ddd\	.	4dd/	4f\	.	4ddd\	.
.	.	.	.	.	.	.	.	.	.	8F\J	.	.	.	.	.	.	.	.	.	.	.	.	.	.	.	.	.	.	.	.	.	.	.	.	.	.
*	*	*	*	*	*	*	*	*	*	*	*	*	*v	*v	*	*	*	*	*	*	*	*	*	*	*	*	*	*	*	*	*	*	*	*	*	*
*	*v	*v	*	*	*	*	*	*	*	*	*	*	*	*	*v	*v	*	*	*	*	*	*	*	*	*	*	*	*	*	*	*	*	*	*	*
=4	=4	=4	=4	=4	=4	=4	=4	=4	=4	=4	=4	=4	=4	=4	=4	=4	=4	=4	=4	=4	=4	=4	=4	=4	=4	=4	=4	=4	=4	=4	=4	=4	=4
*	*	*	*	*	*	*	*	*	*tremolo	*	*	*	*	*	*	*	*	*	*	*	*	*	*	*	*	*	*	*	*	*	*	*	*
1G/ 1GG/	2cc/ 2g/ 2e/	2G\	Oj-	2e\	2g/	2cc\	Oj-	8GG/L	8G\L	.	2G\	2c/ 2E/	.	8cc/L 8e/	.	4g/ 4G/	.	4ee/	4ccn\	.	4e/	.	8cc'\Lyy	.	8cc'\L	.	4ccc\	.	4cc/	4e\	.	8ccc'\L	.
.	.	.	.	.	.	.	.	16GG/L	8G\	.	.	.	.	16cc/L 16e/	.	.	.	.	.	.	.	.	(8gg\yy	.	(8gg\	.	.	.	.	.	.	(8gg\	.
.	.	.	.	.	.	.	.	16GG/JJ	.	.	.	.	.	16cc/JJ 16e/	.	.	.	.	.	.	.	.	.	.	.	.	.	.	.	.	.	.	.
.	.	.	.	.	.	.	.	8GG/L	8G\	.	.	.	.	8cc/L 8e/	.	4r	.	4ee/	4cc\	.	4e/	.	8ee\yy	.	8ee\	.	4r	.	4ee/	4cc\	.	8ee\	.
.	.	.	.	.	.	.	.	8GG/J	8G\J	.	.	.	.	8cc/J 8e/	.	.	.	.	.	.	.	.	8cc\J)yy	.	8cc\J)	.	.	.	.	.	.	8cc\J)	.
*	*	*	*	*	*	*	*	*rep	*	*	*	*	*	*	*	*	*	*	*	*	*	*	*	*	*	*	*	*	*	*	*	*	*
.	2b/ 2g/ 2d/	2GG/	-cze	2d\	2g/	2b\	-cze	8GG/L	8GG/L	.	2GG/	2B/ 2D/	.	8dd/L 8g/	.	4g/ 4G/	.	4r	4ryy	.	4d/	.	(8b\Lyy	.	(8b\L	.	2r	.	4dd/	4b\	.	(8b\L	.
.	.	.	.	.	.	.	.	16GG/L	8GG/	.	.	.	.	16dd/L 16g/	.	.	.	.	.	.	.	.	8dd\)yy	.	8dd\)	.	.	.	.	.	.	8dd\)	.
.	.	.	.	.	.	.	.	16GG/JJ	.	.	.	.	.	16dd/JJ 16g/	.	.	.	.	.	.	.	.	.	.	.	.	.	.	.	.	.	.	.
.	.	.	.	.	.	.	.	8GG/L	8GG/	.	.	.	.	8dd/L 8g/	.	4r	.	4dd/ 4g/	4ryy	.	4g/	.	8gg'\yy	.	8gg'\	.	.	.	4gg/	4b\	.	8gg'\	.
.	.	.	.	.	.	.	.	8GG/J	8GG/J	.	.	.	.	8dd/J 8g/	.	.	.	.	.	.	.	.	8bb'\Jyy	.	8bb'\J	.	.	.	.	.	.	8bb'\J	.
*	*	*	*	*	*	*	*	*Xrep	*	*	*	*	*	*	*	*	*	*	*	*	*	*	*	*	*	*	*	*	*	*	*	*	*
*	*	*	*	*	*	*	*	*	*	*	*	*	*	*	*	*	*	*v	*v	*	*	*	*	*	*	*	*	*	*v	*v	*	*	*
=5	=5	=5	=5	=5	=5	=5	=5	=5	=5	=5	=5	=5	=5	=5	=5	=5	=5	=5	=5	=5	=5	=5	=5	=5	=5	=5	=5	=5	=5	=5	=5
!!LO:PB:g=original
*	*	*	*	*	*	*	*	*	*^	*	*	*	*	*	*	*^	*	*	*	*	*	*	*	*	*	*	*	*	*	*	*
4A\ 4AA\	4cc/ 4f#X/ 4c/	4AA/	Bo-	4c\	4f#X/	4cc\	Bo-	8.r	8AA/	2.y\	.	8.r	8.r	.	8cc/ 8f#X/	.	8.r	8.ryy	.	8.r	.	8f#X/	.	8ccc\	.	8ccc\	.	8.r	.	8ff#X\ 8cc\	.	8ccc\	.
!	!	!	!	!	!	!	!	!	!	!	!	!	!	!	!	!	!	!	!	!	!	!	!	!	!	!	!	!	!	!	!	!LO:N:vis=16.	!
.	.	.	.	.	.	.	.	.	16r	.	.	.	.	.	16r	.	.	.	.	.	.	16r	.	16r	.	16r	ff	.	.	16r	.	16r	.
!	!	!	!	!	!	!	!	!	!	!	!	!	!	!	!	!	!	!	!	!	!	!	!	!	!	!	!	!	!	!	!	!	!LO:DY:t=ffo
.	.	.	.	.	.	.	.	16C/	16A\ 16AA\	.	ff	16A\ 16AA\	16c\ 16F#X\	.	16cc/ 16f#/	.	16a/	16f#X\	.	16cc/ 16c/	ff	16f#/	.	16cc\	.	16cc\	.	16ccc\	.	16ff#\ 16cc\	.	16fff#X\	ff
*	*	*	*	*	*	*	*	*tremolo	*	*	*	*	*	*	*	*	*	*	*	*	*	*	*	*	*	*	*	*	*	*	*	*	*
2A\ 2AA;<\	2cc/ 2f#/ 2c;/	2AA/	-że	2c;\	2f#;/	2cc;\	-że	32C/LLL	2A\; 2AA\	.	.	2A\ 2AA\	2c\ 2F#;<\	.	2cc/ 2f#;/	.	2a/	2f#;\	.	2cc/ 2c;/	.	2f#;/	.	2cc;\	.	2cc;\	.	2ccc;\	.	2ff#\ 2cc;\	.	2fff#;\	.
.	.	.	.	.	.	.	.	32C/	.	.	.	.	.	.	.	.	.	.	.	.	.	.	.	.	.	.	.	.	.	.	.	.	.
.	.	.	.	.	.	.	.	32C/	.	.	.	.	.	.	.	.	.	.	.	.	.	.	.	.	.	.	.	.	.	.	.	.	.
.	.	.	.	.	.	.	.	32C/	.	.	.	.	.	.	.	.	.	.	.	.	.	.	.	.	.	.	.	.	.	.	.	.	.
.	.	.	.	.	.	.	.	32C/	.	.	.	.	.	.	.	.	.	.	.	.	.	.	.	.	.	.	.	.	.	.	.	.	.
.	.	.	.	.	.	.	.	32C/	.	.	.	.	.	.	.	.	.	.	.	.	.	.	.	.	.	.	.	.	.	.	.	.	.
.	.	.	.	.	.	.	.	32C/	.	.	.	.	.	.	.	.	.	.	.	.	.	.	.	.	.	.	.	.	.	.	.	.	.
.	.	.	.	.	.	.	.	32C/JJJ	.	.	.	.	.	.	.	.	.	.	.	.	.	.	.	.	p	.	p	.	.	.	p	.	.
.	.	.	.	.	.	.	.	4C;</	.	.	.	.	.	.	.	.	.	.	.	.	.	.	.	.	.	.	.	.	.	.	.	.	.
4A\ 4AA\	4cc/ 4f#/ 4c/	4A\	Coś	4c\	4f#/	4cc\	Coś	4r	(>4A\	(>4AA\	p	4r	4r	.	4r	.	4r	4ryy	.	4r	.	4f#/	.	4cc\	.	4cc\	.	4r	.	4ff#\ 4cc\	.	4r	.
*	*	*	*	*	*	*	*	*	*	*	*	*	*	*	*	*	*v	*v	*	*	*	*	*	*	*	*	*	*	*	*	*	*	*
=6	=6	=6	=6	=6	=6	=6	=6	=6	=6	=6	=6	=6	=6	=6	=6	=6	=6	=6	=6	=6	=6	=6	=6	=6	=6	=6	=6	=6	=6	=6	=6	=6
*	*	*	*	*	*	*	*	*	*	*	*	*	*	*	*	*	*	*	*	*	*	*	*	*	*	*	*	*	*^	*	*	*
*	*	*	*	*	*	*	*	*	*	*	*	*	*	*	*	*	*	*	*	*	*	*	*	*	*	*	*	*	*	*^	*	*	*
4G\ 4GG\	4b/ 4g/ 4d/	4G\	stwo-	4d\	4g/	4b\	stwo-	1r	4G\)	4GG\)	.	1r	1r	.	1r	.	1r	.	2dd\ 2g\	.	8g'/L	.	8b'\L	.	8b'\L	.	1r	.	4gg/	2b\	2b/	.	1r	.
.	.	.	.	.	.	.	.	.	.	.	.	.	.	.	.	.	.	.	.	.	(8d/	.	(8gg\	.	(8gg\	.	.	.	.	.	.	.	.	.
4G\	4dd/ 4b/ 4g/	4G\	-rzył	4B\	4g/	4dd\	-rzył	.	4G\	2.y\	.	.	.	.	.	.	.	.	.	.	8b/	.	8dd\	.	8dd\	.	.	.	4dd/	.	.	.	.	.
.	.	.	.	.	.	.	.	.	.	.	.	.	.	.	.	.	.	.	.	.	8g/J)	.	8b\J)	.	8b\J)	.	.	.	.	.	.	.	.	.
4GG/	2ee/ 2cc/ 2g/	4G\	wszy-	4c\	4g/	4ee\	wszy-	.	4GG/	.	.	.	.	.	.	.	.	.	2ee\ 2cc\	.	8e'/L	.	8cc'\L	.	8cc'\L	.	.	.	4ee/	4cc\	4ryy	.	.	.
.	.	.	.	.	.	.	.	.	.	.	.	.	.	.	.	.	.	.	.	.	(8c/	.	(8gg\	.	(8gg\	.	.	.	.	.	.	.	.	.
4G\	.	4G\	-stkie	4c\	4g/	4ee\	-stkie	.	4G\	.	.	.	.	.	.	.	.	.	.	.	8g/	.	8ee\	.	8ee\	.	.	.	4ee/	4cc\	4ryy	.	.	.
.	.	.	.	.	.	.	.	.	.	.	.	.	.	.	.	.	.	.	.	.	8e/J)	.	8cc\J)	.	8cc\J)	.	.	.	.	.	.	.	.	.
*	*	*	*	*	*	*	*	*	*v	*v	*	*	*	*	*	*	*	*	*	*	*	*	*	*	*	*	*	*	*	*v	*v	*	*	*
=7	=7	=7	=7	=7	=7	=7	=7	=7	=7	=7	=7	=7	=7	=7	=7	=7	=7	=7	=7	=7	=7	=7	=7	=7	=7	=7	=7	=7	=7	=7	=7	=7
4GG/	2dd/ 2b/ 2g/	2G\	rze-	2B\	2g/	2dd\	rze-	1r	4GG/	.	1r	1r	.	2r	.	1r	.	1dd/ 1g/	.	8d'/L	.	8b'\L	.	8b'\L	.	1r	.	2dd/	2b\	.	1r	.
.	.	.	.	.	.	.	.	.	.	.	.	.	.	.	.	.	.	.	.	(8dd/	.	(8gg\	.	(8gg\	.	.	.	.	.	.	.	.
4G\	.	.	.	.	.	.	.	.	4G\	.	.	.	.	.	.	.	.	.	.	8b/	.	8dd\	.	8dd\	.	.	.	.	.	.	.	.
.	.	.	.	.	.	.	.	.	.	.	.	.	.	.	.	.	.	.	.	8g/J)	.	8b\J)	.	8b\J)	.	.	.	.	.	.	.	.
4GG/	2dd/ 2b/ 2g/	4G\	-czy	4B\	4g/	4dd\	-czy	.	4GG/	.	.	.	.	4r	.	.	.	.	.	8d'/L	.	8g'/L	.	8g'/L	.	.	.	4dd/	4b\	.	.	.
.	.	.	.	.	.	.	.	.	.	.	.	.	.	.	.	.	.	.	.	(8B/	.	(8dd/	.	(8dd/	.	.	.	.	.	.	.	.
4G\	.	4G\	i	4d\	4b/	4dd\	I	.	4G\	.	.	.	.	(4dd\ 4b\	.	.	.	.	.	8g/	.	8b/	.	8b/	.	.	.	(4bb\ [>4dd\	4ryy	.	.	.
.	.	.	.	.	.	.	.	.	.	.	.	.	.	.	.	.	.	.	.	8b/J)	.	8g/J)	.	8g/J)	.	.	.	.	.	.	.	.
*	*	*	*	*	*	*	*	*	*	*	*	*	*	*	*	*	*	*	*	*	*	*	*	*	*	*	*	*v	*v	*	*	*
=8	=8	=8	=8	=8	=8	=8	=8	=8	=8	=8	=8	=8	=8	=8	=8	=8	=8	=8	=8	=8	=8	=8	=8	=8	=8	=8	=8	=8	=8	=8	=8
*	*^	*	*	*	*	*	*	*	*^	*	*	*	*	*	*	*	*	*^	*	*	*	*	*	*	*	*	*	*	*	*	*
2C/ 2CC/	4dd/ 4b/	2e\	2C/	rzą-	2e\	(4b/	(4dd\	rzą-	1r	4C/	2C\	.	1r	1r	.	4dd\ 4b\	.	1r	.	2ee/	2cc\	.	4b/	.	4dd\	.	(8dd/L	.	1r	.	4bb\ 4dd\]	.	1r	.
.	.	.	.	.	.	.	.	.	.	.	.	.	.	.	.	.	.	.	.	.	.	.	.	.	.	.	8e/)	.	.	.	.	.	.	.
.	4cc/ 4a/	.	.	.	.	4a/)	4cc\)	.	.	4c/	.	.	.	.	.	4cc\ 4a\	.	.	.	.	.	.	4a/	.	4cc\	.	(8cc/	.	.	.	4aa\ 4cc\	.	.	.
.	.	.	.	.	.	.	.	.	.	.	.	.	.	.	.	.	.	.	.	.	.	.	.	.	.	.	8e/J)	.	.	.	.	.	.	.
2D/ 2DD/	4b/ 4g/	2d\	4D\	-dzisz	4d\	4g/	4b\	-dzisz	.	4d/	2D\	.	.	.	.	4b/ 4g/	.	.	.	2dd/	2dd\	.	4g/	.	4b/ 4d/	.	(8b/L	.	.	.	4gg\ 4b\)	.	.	.
.	.	.	.	.	.	.	.	.	.	.	.	.	.	.	.	.	.	.	.	.	.	.	.	.	.	.	8d/)	.	.	.	.	.	.	.
.	4a/ 4f#X/	.	4D\	wszy-	4c\	4f#X/	4a\	wszy-	.	4c/	.	.	.	.	.	4a/ 4f#X/)	.	.	.	.	.	.	4f#X/	.	4a/ 4c/	.	(8a/	.	.	.	4ff#X\ 4a\	.	.	.
.	.	.	.	.	.	.	.	.	.	.	.	.	.	.	.	.	.	.	.	.	.	.	.	.	.	.	8c/J)	.	.	.	.	.	.	.
*	*v	*v	*	*	*	*	*	*	*	*	*	*	*	*	*	*	*	*	*	*v	*v	*	*	*	*	*	*	*	*	*	*	*	*	*
=9	=9	=9	=9	=9	=9	=9	=9	=9	=9	=9	=9	=9	=9	=9	=9	=9	=9	=9	=9	=9	=9	=9	=9	=9	=9	=9	=9	=9	=9	=9	=9	=9
*	*	*	*	*	*	*	*	*	*	*	*	*	*	*	*	*	*	*	*	*	*	*	*	*	*	*	*	*	*^	*	*	*
2D/ 2DD/	2a/ 2f#X/ 2c/	2D\	-stkie-	2c\	2f#X/	2a/	-stkie-	1ryy	(2c/	(2D\	.	1ryy	1ryy	.	(2a/ (2f#X^/	.	1r	.	[2dd\	>	(2f#X/	.	[2a/ [2c/	.	2a/	.	2r	.	(2ff#X/	(2cc\	.	2r	.
8G\ 8GG\	8g/ 8B/	4G\	-mi	4B\	4g/	4g/	-mi	.	8B/)	8G\)	.	.	.	.	8g/))	.	.	.	8dd\]	]	8g/)	.	8a/] 8c/]	.	8g/	.	8r	.	8gg/)	8b\)	.	8r	.
!	!	!	!	!	!	!	!	!	!	!	!	!	!	!	!	!	!	!	!	!	!	!	!	!	!	!	!	!LO:DY:a	!	!	!	!	!
*	*	*	*	*	*	*	*	*	*Xtremolo	*	*	*	*	*	*	*	*	*	*	*	*	*	*	*	*	*	*	*	*	*	*	*	*
4.G\ 4.GG\	8g/L 8B/	.	.	.	.	.	.	.	8G/L 8GG/	8ryy	.	.	.	.	(8g/L 8B/	.	.	.	8r	.	(8g/L	.	(<8g/L	<	(8g/L	.	8gg\L	<	(8gg\L 8b\ 8g\	8ryy	<	(8gg\L	<
.	8a/ 8f#X/ 8c/	4r	.	4r	4r	4r	.	.	8G/ 8GG/	8ryy	.	.	.	.	8a/ 8c/	.	.	.	4r	.	8f#X/	.	8a/	.	8a/	.	8aa\	.	8ff#X\ 8cc\ 8a\	8ryy	.	8aa\	.
.	8b/J 8g/ 8fn/ 8d/	.	.	.	.	.	.	.	8G/J 8GG/	8ryy	.	.	.	.	8b/J 8d/	.	.	.	.	.	8fn/J	.	8b/J	[[	8b/J	.	8bb\J	.	8ffn\J 8dd\ 8b\	8ryy	.	8bb\J	.
*	*	*	*	*	*	*	*	*	*v	*v	*	*	*	*	*	*	*	*	*	*	*	*	*	*	*	*	*	*	*	*	*	*	*
=10	=10	=10	=10	=10	=10	=10	=10	=10	=10	=10	=10	=10	=10	=10	=10	=10	=10	=10	=10	=10	=10	=10	=10	=10	=10	=10	=10	=10	=10	=10	=10	=10
!!LO:LB:g=original
*	*	*	*	*	*	*	*	*	*	*	*	*^	*	*^	*	*^	*	*	*	*	*	*	*	*	*	*	*	*	*	*	*	*
!	!	!	!	!	!	!	!	!	!	!	!	!	!	!	!LO:TX:t=P:problem=brak zakończenia łuku	!	!	!	!	!LO:DY:a	!	!	!LO:TX:t=P:problem=brak zakończenia łuku	!	!LO:TX:t=P:problem=brak zakończenia łuku	!	!LO:TX:t=P:problem=brak zakończenia łuku	!	!	!	!LO:TX:t=P:problem=brak zakończenia łuku	!	!	!LO:TX:t=P:problem=brak zakończenia łuku	!
[1C/ [1CC/	2cc/ 2g/ 2e/	2C/	od-	2G/	2e/	2cc\	Od-	32C/LLL	8CC/L	.	1C/	2c/	1E\	f	2cc/)	1e\	f	1g/	1g\	f	1ee\ 1cc\	f	1e/)	.	2cc\)	f	(8cc/L)	.	(8ccc\L	[ f	1ee/)	2cc\	[	8ccc\L)	[ f
.	.	.	.	.	.	.	.	32C/	.	.	.	.	.	.	.	.	.	.	.	.	.	.	.	.	.	.	.	.	.	.	.	.	.	.	.
.	.	.	.	.	.	.	.	32C/	.	.	.	.	.	.	.	.	.	.	.	.	.	.	.	.	.	.	.	.	.	.	.	.	.	.	.
.	.	.	.	.	.	.	.	32C/	.	.	.	.	.	.	.	.	.	.	.	.	.	.	.	.	.	.	.	.	.	.	.	.	.	.	.
.	.	.	.	.	.	.	.	32C/	8C/	.	.	.	.	.	.	.	.	.	.	.	.	.	.	.	.	.	8g/	.	8gg\	.	.	.	.	8gg\	.
.	.	.	.	.	.	.	.	32C/	.	.	.	.	.	.	.	.	.	.	.	.	.	.	.	.	.	.	.	.	.	.	.	.	.	.	.
.	.	.	.	.	.	.	.	32C/	.	.	.	.	.	.	.	.	.	.	.	.	.	.	.	.	.	.	.	.	.	.	.	.	.	.	.
.	.	.	.	.	.	.	.	32C/	.	.	.	.	.	.	.	.	.	.	.	.	.	.	.	.	.	.	.	.	.	.	.	.	.	.	.
.	.	.	.	.	.	.	.	32C/	8C/	.	.	.	.	.	.	.	.	.	.	.	.	.	.	.	.	.	8e/	.	8ee\	.	.	.	.	8ee\	.
.	.	.	.	.	.	.	.	32C/	.	.	.	.	.	.	.	.	.	.	.	.	.	.	.	.	.	.	.	.	.	.	.	.	.	.	.
.	.	.	.	.	.	.	.	32C/	.	.	.	.	.	.	.	.	.	.	.	.	.	.	.	.	.	.	.	.	.	.	.	.	.	.	.
.	.	.	.	.	.	.	.	32C/	.	.	.	.	.	.	.	.	.	.	.	.	.	.	.	.	.	.	.	.	.	.	.	.	.	.	.
.	.	.	.	.	.	.	.	32C/	8C/J	.	.	.	.	.	.	.	.	.	.	.	.	.	.	.	.	.	8c/J)	.	8cc\J)	.	.	.	.	8cc\J	.
.	.	.	.	.	.	.	.	32C/	.	.	.	.	.	.	.	.	.	.	.	.	.	.	.	.	.	.	.	.	.	.	.	.	.	.	.
.	.	.	.	.	.	.	.	32C/	.	.	.	.	.	.	.	.	.	.	.	.	.	.	.	.	.	.	.	.	.	.	.	.	.	.	.
.	.	.	.	.	.	.	.	32C/JJJ	.	.	.	.	.	.	.	.	.	.	.	.	.	.	.	.	.	.	.	.	.	.	.	.	.	.	.
*	*	*	*	*	*	*	*	*	*tremolo	*	*	*	*	*	*	*	*	*	*	*	*	*	*	*	*	*	*	*	*	*	*	*	*	*	*
.	2g/ 2e/	2C/	-wróć	2c\	2e/	2g/	-wróć	4C/	8C/L	.	.	2G/	.	.	2g/	.	.	.	.	.	.	.	.	.	2g/	.	(8g/L	.	(8gg/L	.	.	2g\	.	8gg\L	.
.	.	.	.	.	.	.	.	.	8C/	.	.	.	.	.	.	.	.	.	.	.	.	.	.	.	.	.	8e/	.	8ee/	.	.	.	.	8ee\	.
.	.	.	.	.	.	.	.	4r	8C/	.	.	.	.	.	.	.	.	.	.	.	.	.	.	.	.	.	8c/	.	8cc/	.	.	.	.	8cc\	.
.	.	.	.	.	.	.	.	.	8C/J	.	.	.	.	.	.	.	.	.	.	.	.	.	.	.	.	.	8e/J)	.	8ee/J)	.	.	.	.	8ee\J	.
*	*	*	*	*	*	*	*	*	*	*	*	*v	*v	*	*	*	*	*	*	*	*	*	*	*	*	*	*	*	*	*	*v	*v	*	*	*
*	*	*	*	*	*	*	*	*	*	*	*	*	*	*v	*v	*	*	*	*	*	*	*	*	*	*	*	*	*	*	*	*	*	*
=11	=11	=11	=11	=11	=11	=11	=11	=11	=11	=11	=11	=11	=11	=11	=11	=11	=11	=11	=11	=11	=11	=11	=11	=11	=11	=11	=11	=11	=11	=11	=11	=11
*	*	*	*	*	*	*	*	*rep	*rep	*	*	*	*	*	*	*	*	*	*	*	*	*	*	*	*	*	*	*	*	*	*	*
1C/_ 1CC/_	2ee/ 2cc/ 2g/ 2e/	2C/	od	2c\	2g/	2ee\	od	32C/LLL	8CC/L	.	2C/	(2e\ (2G\	.	2ee/ 2g/	.	1g/	1g\	.	1ee\ 1cc\	.	(2g/	.	2ee\	.	(8ee/L	.	(8eee\L	.	2gg\ 2ee\	.	2eee\	.
.	.	.	.	.	.	.	.	32C/	.	.	.	.	.	.	.	.	.	.	.	.	.	.	.	.	.	.	.	.	.	.	.	.
.	.	.	.	.	.	.	.	32C/	.	.	.	.	.	.	.	.	.	.	.	.	.	.	.	.	.	.	.	.	.	.	.	.
.	.	.	.	.	.	.	.	32C/	.	.	.	.	.	.	.	.	.	.	.	.	.	.	.	.	.	.	.	.	.	.	.	.
.	.	.	.	.	.	.	.	32C/	8C/	.	.	.	.	.	.	.	.	.	.	.	.	.	.	.	8cc/	.	8ccc\	.	.	.	.	.
.	.	.	.	.	.	.	.	32C/	.	.	.	.	.	.	.	.	.	.	.	.	.	.	.	.	.	.	.	.	.	.	.	.
.	.	.	.	.	.	.	.	32C/	.	.	.	.	.	.	.	.	.	.	.	.	.	.	.	.	.	.	.	.	.	.	.	.
.	.	.	.	.	.	.	.	32C/	.	.	.	.	.	.	.	.	.	.	.	.	.	.	.	.	.	.	.	.	.	.	.	.
.	.	.	.	.	.	.	.	32C/	8C/	.	.	.	.	.	.	.	.	.	.	.	.	.	.	.	8g/	.	8gg\	.	.	.	.	.
.	.	.	.	.	.	.	.	32C/	.	.	.	.	.	.	.	.	.	.	.	.	.	.	.	.	.	.	.	.	.	.	.	.
.	.	.	.	.	.	.	.	32C/	.	.	.	.	.	.	.	.	.	.	.	.	.	.	.	.	.	.	.	.	.	.	.	.
.	.	.	.	.	.	.	.	32C/	.	.	.	.	.	.	.	.	.	.	.	.	.	.	.	.	.	.	.	.	.	.	.	.
.	.	.	.	.	.	.	.	32C/	8C/J	.	.	.	.	.	.	.	.	.	.	.	.	.	.	.	8e/J)	.	8ee\J)	.	.	.	.	.
.	.	.	.	.	.	.	.	32C/	.	.	.	.	.	.	.	.	.	.	.	.	.	.	.	.	.	.	.	.	.	.	.	.
.	.	.	.	.	.	.	.	32C/	.	.	.	.	.	.	.	.	.	.	.	.	.	.	.	.	.	.	.	.	.	.	.	.
.	.	.	.	.	.	.	.	32C/JJJ	.	.	.	.	.	.	.	.	.	.	.	.	.	.	.	.	.	.	.	.	.	.	.	.
.	2cc/ 2g/ 2e/	4C/	nas	4G/	4e/	4cc\	nas	4C/	8C/L	.	4C/	4c/ 4E/))	.	4cc/ 4e/	.	.	.	.	.	.	4e/)	.	4cc\	.	(8cc/L	.	(8ccc\L	.	2ee\ 2cc\	.	2ccc\	.
.	.	.	.	.	.	.	.	.	8C/	.	.	.	.	.	.	.	.	.	.	.	.	.	.	.	8g/	.	8gg\	.	.	.	.	.
.	.	4C/	co	4G/	4e/	4cc\	co	4r	8C/	.	4C/	4c/ 4E/	.	4cc/ 4e/	.	.	.	.	.	.	4e/	.	4cc\	.	8e/	.	8ee\	.	.	.	.	.
.	.	.	.	.	.	.	.	.	8C/J	.	.	.	.	.	.	.	.	.	.	.	.	.	.	.	8g/J)	.	8gg\J)	.	.	.	.	.
*	*	*	*	*	*	*	*	*Xrep	*Xrep	*	*	*	*	*	*	*	*	*	*	*	*	*	*	*	*	*	*	*	*	*	*	*
=12	=12	=12	=12	=12	=12	=12	=12	=12	=12	=12	=12	=12	=12	=12	=12	=12	=12	=12	=12	=12	=12	=12	=12	=12	=12	=12	=12	=12	=12	=12	=12	=12
*	*	*	*	*	*	*	*	*rep	*	*	*	*	*	*	*	*	*	*	*	*	*	*	*	*	*	*	*	*	*	*	*	*
*	*	*	*	*	*	*	*	*	*	*	*	*	*	*	*	*	*	*	*^	*	*	*	*	*	*	*	*	*	*^	*	*	*
1C/_ 1CC/_	2b/ 2g/ 2d/	2C/	po-	2G/	2d/	2b\	po-	32C/LLL	8C/L	.	2C/	2B/ 2D/	.	2b/ 2d/	.	1g/	1g\	.	2dd/	2dd\	.	2d/	.	2b\	.	(8b/L	.	(8bb\L	.	2dd/	2b\	.	2bb\	.
.	.	.	.	.	.	.	.	32C/	.	.	.	.	.	.	.	.	.	.	.	.	.	.	.	.	.	.	.	.	.	.	.	.	.	.
.	.	.	.	.	.	.	.	32C/	.	.	.	.	.	.	.	.	.	.	.	.	.	.	.	.	.	.	.	.	.	.	.	.	.	.
.	.	.	.	.	.	.	.	32C/	.	.	.	.	.	.	.	.	.	.	.	.	.	.	.	.	.	.	.	.	.	.	.	.	.	.
.	.	.	.	.	.	.	.	32C/	8C/	.	.	.	.	.	.	.	.	.	.	.	.	.	.	.	.	8g/	.	8gg\	.	.	.	.	.	.
.	.	.	.	.	.	.	.	32C/	.	.	.	.	.	.	.	.	.	.	.	.	.	.	.	.	.	.	.	.	.	.	.	.	.	.
.	.	.	.	.	.	.	.	32C/	.	.	.	.	.	.	.	.	.	.	.	.	.	.	.	.	.	.	.	.	.	.	.	.	.	.
.	.	.	.	.	.	.	.	32C/	.	.	.	.	.	.	.	.	.	.	.	.	.	.	.	.	.	.	.	.	.	.	.	.	.	.
.	.	.	.	.	.	.	.	32C/	8C/	.	.	.	.	.	.	.	.	.	.	.	.	.	.	.	.	8d/	.	8dd\	.	.	.	.	.	.
.	.	.	.	.	.	.	.	32C/	.	.	.	.	.	.	.	.	.	.	.	.	.	.	.	.	.	.	.	.	.	.	.	.	.	.
.	.	.	.	.	.	.	.	32C/	.	.	.	.	.	.	.	.	.	.	.	.	.	.	.	.	.	.	.	.	.	.	.	.	.	.
.	.	.	.	.	.	.	.	32C/	.	.	.	.	.	.	.	.	.	.	.	.	.	.	.	.	.	.	.	.	.	.	.	.	.	.
.	.	.	.	.	.	.	.	32C/	8C/J	.	.	.	.	.	.	.	.	.	.	.	.	.	.	.	.	8g/J)	.	8gg\J)	.	.	.	.	.	.
.	.	.	.	.	.	.	.	32C/	.	.	.	.	.	.	.	.	.	.	.	.	.	.	.	.	.	.	.	.	.	.	.	.	.	.
.	.	.	.	.	.	.	.	32C/	.	.	.	.	.	.	.	.	.	.	.	.	.	.	.	.	.	.	.	.	.	.	.	.	.	.
.	.	.	.	.	.	.	.	32C/JJJ	.	.	.	.	.	.	.	.	.	.	.	.	.	.	.	.	.	.	.	.	.	.	.	.	.	.
.	2cc/ 2g/ 2e/	2C/	-kój	2G/	2e/	2cc\	-kój	4C/	8C/L	.	2C/	4c/ 4E/	.	2cc/ 2e/	.	.	.	.	2ee/	2cc\	.	2e/	.	2cc\	.	(8cc/L	.	(8ccc\L	.	2ee/	2cc\	.	2ccc\	.
.	.	.	.	.	.	.	.	.	8C/	.	.	.	.	.	.	.	.	.	.	.	.	.	.	.	.	8g/	.	8gg\	.	.	.	.	.	.
.	.	.	.	.	.	.	.	4r	8C/	.	.	4e/ 4G/	.	.	.	.	.	.	.	.	.	.	.	.	.	8e/	.	8ee\	.	.	.	.	.	.
.	.	.	.	.	.	.	.	.	8C/J	.	.	.	.	.	.	.	.	.	.	.	.	.	.	.	.	8g/J)	.	8gg\J)	.	.	.	.	.	.
*	*	*	*	*	*	*	*	*	*	*	*	*	*	*	*	*	*	*	*v	*v	*	*	*	*	*	*	*	*	*	*	*	*	*	*
*	*	*	*	*	*	*	*	*Xrep	*	*	*	*	*	*	*	*	*	*	*	*	*	*	*	*	*	*	*	*	*	*	*	*	*
=13	=13	=13	=13	=13	=13	=13	=13	=13	=13	=13	=13	=13	=13	=13	=13	=13	=13	=13	=13	=13	=13	=13	=13	=13	=13	=13	=13	=13	=13	=13	=13	=13	=13
*	*^	*	*	*	*	*	*	*	*	*	*	*^	*	*^	*	*	*	*	*	*	*	*	*	*	*	*	*	*	*	*	*	*	*
2C/] 2CC/]	2dd/ 2f/	4a\	4C/	du-	4A/	4f/	4dd\	du-	2r	8C/L	.	2C/	2d/	4A\	.	2dd/	1f\	.	4a/	1f\	.	4dd\	.	1f/	.	2dd\	.	8dd'/L	.	8ddd'\L	.	1ff/	4a\	.	[1ddd\	.
.	.	.	.	.	.	.	.	.	.	8C/	.	.	.	.	.	.	.	.	.	.	.	.	.	.	.	.	.	(8f/	.	(8ff\	.	.	.	.	.	.
.	.	4a-X\	4C/	-szy	4A-X/	4f/	4dd\	-szy	.	8C/	.	.	.	4A-X\	.	.	.	.	4a-X/	.	.	8dd\L	.	.	.	.	.	8a-X/	.	8aa-X\	.	.	4a-X\	.	.	.
.	.	.	.	.	.	.	.	.	.	8C/J	.	.	.	.	.	.	.	.	.	.	.	8dd\J	.	.	.	.	.	8f/J)	.	8ff\J)	.	.	.	.	.	.
2BBn/ 2BBBn/	2dd/ 2g/ 2f/	4ryy	4BBn/	mie-	4G/	4f/	4dd\	mie-	4GG/	8BBn/L	.	2BBn/	[2d/	2G\	.	[2dd/	.	.	2g/	.	.	4dd\	.	.	.	[2dd\	.	8dd'/L	.	8ddd'\L	.	.	2g\	.	.	.
.	.	.	.	.	.	.	.	.	.	8BB/	.	.	.	.	.	.	.	.	.	.	.	.	.	.	.	.	.	(8f/	.	(8ff\	.	.	.	.	.	.
.	.	4ryy	4BB/	-szać	4G/	4f/	4dd\	-szać	4GG/	8BB/	.	.	.	.	.	.	.	.	.	.	.	4dd\	.	.	.	.	.	8g/	.	8gg\	.	.	.	.	.	.
.	.	.	.	.	.	.	.	.	.	8BB/J	.	.	.	.	.	.	.	.	.	.	.	.	.	.	.	.	.	8f/J)	.	8ff\J)	.	.	.	.	.	.
*	*	*	*	*	*	*	*	*	*	*	*	*	*	*	*	*	*	*	*v	*v	*	*	*	*	*	*	*	*	*	*	*	*	*	*	*	*
=14	=14	=14	=14	=14	=14	=14	=14	=14	=14	=14	=14	=14	=14	=14	=14	=14	=14	=14	=14	=14	=14	=14	=14	=14	=14	=14	=14	=14	=14	=14	=14	=14	=14	=14	=14
*	*	*	*	*	*	*	*	*	*	*	*	*	*	*	*	*	*	*	*	*	*^	*	*	*	*	*	*	*	*	*	*	*	*	*	*
2C/ 2CC/	4dd/	2g\ 2e\	2C/	mo-	2G/	2e/	(4dd\	mo-	32C/LLL	8C/L	.	2.C/	4d/]	2G\	.	4dd/]	2.e\	.	4g\	.	4dd\	4ryy	.	2.e/	.	4dd\]	.	(8dd/L	.	((8ddd\L	.	2.ee/	2.g\	.	4ddd\]	.
.	.	.	.	.	.	.	.	.	32C/	.	.	.	.	.	.	.	.	.	.	.	.	.	.	.	.	.	.	.	.	.	.	.	.	.	.	.
.	.	.	.	.	.	.	.	.	32C/	.	.	.	.	.	.	.	.	.	.	.	.	.	.	.	.	.	.	.	.	.	.	.	.	.	.	.
.	.	.	.	.	.	.	.	.	32C/	.	.	.	.	.	.	.	.	.	.	.	.	.	.	.	.	.	.	.	.	.	.	.	.	.	.	.
.	.	.	.	.	.	.	.	.	32C/	8C/	.	.	.	.	.	.	.	.	.	.	.	.	.	.	.	.	.	8e/)	.	8ee\)	.	.	.	.	.	.
.	.	.	.	.	.	.	.	.	32C/	.	.	.	.	.	.	.	.	.	.	.	.	.	.	.	.	.	.	.	.	.	.	.	.	.	.	.
.	.	.	.	.	.	.	.	.	32C/	.	.	.	.	.	.	.	.	.	.	.	.	.	.	.	.	.	.	.	.	.	.	.	.	.	.	.
.	.	.	.	.	.	.	.	.	32C/	.	.	.	.	.	.	.	.	.	.	.	.	.	.	.	.	.	.	.	.	.	.	.	.	.	.	.
.	4cc/	.	.	.	.	.	4cc\)	.	32C/	8C/	.	.	2c/	.	.	2cc/	.	.	8g\L	.	2cc^</	2cc\	.	.	.	2cc^<\	.	(8cc/	.	(8ccc\	.	.	.	.	2ccc\	.
.	.	.	.	.	.	.	.	.	32C/	.	.	.	.	.	.	.	.	.	.	.	.	.	.	.	.	.	.	.	.	.	.	.	.	.	.	.
.	.	.	.	.	.	.	.	.	32C/	.	.	.	.	.	.	.	.	.	.	.	.	.	.	.	.	.	.	.	.	.	.	.	.	.	.	.
.	.	.	.	.	.	.	.	.	32C/	.	.	.	.	.	.	.	.	.	.	.	.	.	.	.	.	.	.	.	.	.	.	.	.	.	.	.
.	.	.	.	.	.	.	.	.	32C/	8C/	.	.	.	.	.	.	.	.	8g\J	.	.	.	.	.	.	.	.	8e/J)	.	8ee\J))	.	.	.	.	.	.
.	.	.	.	.	.	.	.	.	32C/	.	.	.	.	.	.	.	.	.	.	.	.	.	.	.	.	.	.	.	.	.	.	.	.	.	.	.
.	.	.	.	.	.	.	.	.	32C/	.	.	.	.	.	.	.	.	.	.	.	.	.	.	.	.	.	.	.	.	.	.	.	.	.	.	.
.	.	.	.	.	.	.	.	.	32C/JJJ	.	.	.	.	.	.	.	.	.	.	.	.	.	.	.	.	.	.	.	.	.	.	.	.	.	.	.
4c\ 4C\	4cc/ 4g/ 4e/	4ryy	4C/	-że	4G/	4e/	4cc\	-że	4C/	8C/	.	.	.	4E\	.	.	.	.	4g\	.	.	.	.	.	.	.	.	(8cc\L	.	(8ccc\L	.	.	.	.	.	.
.	.	.	.	.	.	.	.	.	.	8C/J	.	.	.	.	.	.	.	.	.	.	.	.	.	.	.	.	.	8g\	.	8gg\	.	.	.	.	.	.
*	*	*	*	*	*	*	*	*	*	*Xtremolo	*	*	*	*	*	*	*	*	*	*	*	*	*	*	*	*	*	*	*	*	*	*	*	*	*	*
4B-X\ 4BB-X\	4ee/ 4cc/ 4g/	4ryy	4B-X\ 4BB-X\	I	4c\	4g/	4ee\	I	4r	8BB-X/L	.	4BB-X/	4e/	4c\	.	4ee/	4cc\	.	4g\	.	4ee/	4cc\	.	4g/	.	4ee\	.	8cc\	.	8ccc\	.	4ee/	4cc\	.	4eee\	.
.	.	.	.	.	.	.	.	.	.	8BB-/J	.	.	.	.	.	.	.	.	.	.	.	.	.	.	.	.	.	8ee\J)	.	8eee\J)	.	.	.	.	.	.
*	*v	*v	*	*	*	*	*	*	*	*	*	*	*	*	*	*	*	*	*	*	*	*	*	*	*	*	*	*	*	*	*	*	*	*	*	*
=15	=15	=15	=15	=15	=15	=15	=15	=15	=15	=15	=15	=15	=15	=15	=15	=15	=15	=15	=15	=15	=15	=15	=15	=15	=15	=15	=15	=15	=15	=15	=15	=15	=15	=15	=15
!!LO:LB:g=original
*	*	*	*	*	*	*	*	*	*	*	*	*	*	*	*	*	*	*^	*	*	*	*	*	*	*	*	*	*	*	*	*	*	*	*	*
*	*	*	*	*	*	*	*	*	*tremolo	*	*	*	*	*	*	*	*	*	*	*	*	*	*	*	*	*	*	*	*	*	*	*	*	*	*	*
2A\ 2AA\	2ff/ 2cc/ 2f/	2A\ 2AA\	spraw	2d\	2f/	2ff\	spraw	1r	8A\L 8AA\	.	2AA/	2f/	2c\	.	2ff/	2cc\	.	2a/	2f\	.	2ff/	2cc\	.	1f/	.	2ff\	.	(8ff/L	.	(8fff\L	.	2ff/	1cc\	.	2fff\	.
.	.	.	.	.	.	.	.	.	8A\ 8AA\	.	.	.	.	.	.	.	.	.	.	.	.	.	.	.	.	.	.	8cc/	.	8ccc\	.	.	.	.	.	.
.	.	.	.	.	.	.	.	.	8A\ 8AA\	.	.	.	.	.	.	.	.	.	.	.	.	.	.	.	.	.	.	8a/	.	8aa\	.	.	.	.	.	.
.	.	.	.	.	.	.	.	.	8A\J 8AA\	.	.	.	.	.	.	.	.	.	.	.	.	.	.	.	.	.	.	8f/J)	.	8ff\J)	.	.	.	.	.	.
2F/ 2FF/	2dd/ 2a/ 2f/	2F\	niech	2A\	2f/	2dd\	niech	.	8F/L 8FF/	.	2F\	2d/	2A\	.	2dd/	2dd\	.	2a/	2f\	.	2dd/	2dd\	.	.	.	2dd\	.	(8dd/L	.	(8ddd\L	.	2dd/	.	.	2ddd\	.
.	.	.	.	.	.	.	.	.	8F/ 8FF/	.	.	.	.	.	.	.	.	.	.	.	.	.	.	.	.	.	.	8a/	.	8aa\	.	.	.	.	.	.
.	.	.	.	.	.	.	.	.	8F/ 8FF/	.	.	.	.	.	.	.	.	.	.	.	.	.	.	.	.	.	.	8f/	.	8ff\	.	.	.	.	.	.
.	.	.	.	.	.	.	.	.	8F/J 8FF/	.	.	.	.	.	.	.	.	.	.	.	.	.	.	.	.	.	.	8dd/J)	.	8ddd\J)	.	.	.	.	.	.
*	*	*	*	*	*	*	*	*	*	*	*	*v	*v	*	*	*	*	*v	*v	*	*v	*v	*	*	*	*	*	*	*	*	*	*v	*v	*	*	*
*	*	*	*	*	*	*	*	*	*	*	*	*	*	*v	*v	*	*	*	*	*	*	*	*	*	*	*	*	*	*	*	*	*
=16	=16	=16	=16	=16	=16	=16	=16	=16	=16	=16	=16	=16	=16	=16	=16	=16	=16	=16	=16	=16	=16	=16	=16	=16	=16	=16	=16	=16	=16	=16	=16
1G/ 1GG/	1cc/ 1g/ 1e/	2G\	po-	2G/	2e/	2cc\	po-	4GG/	8G/L 8GG/	.	1G\	1e\ 1c\	.	4ee\ 4cc\	.	[1g/	.	4ee\ 4cc\	.	1e/	.	[1cc\	.	8cc'\L	.	8ccc'\L	.	1ee\ 1cc\	.	[1ccc\	.
.	.	.	.	.	.	.	.	.	8G/ 8GG/	.	.	.	.	.	.	.	.	.	.	.	.	.	.	(8ccc\	.	(8ccc\	.	.	.	.	.
*	*	*	*	*	*	*	*	*Xtremolo	*	*	*	*	*	*	*	*	*	*	*	*	*	*	*	*	*	*	*	*	*	*	*
.	.	.	.	.	.	.	.	8GG/L	8G/ 8GG/	.	.	.	.	8ee\L 8cc\	.	.	.	8ee\L 8cc\	.	.	.	.	.	8gg\	.	8gg\	.	.	.	.	.
.	.	.	.	.	.	.	.	8GG/J	8G/ 8GG/	.	.	.	.	8ee\J 8cc\	.	.	.	8ee\J 8cc\	.	.	.	.	.	8ee\J)	.	8ee\J	.	.	.	.	.
.	.	4G\	-kój	4G/	4e/	4cc\	-kój	4GG/	8G/ 8GG/	.	.	.	.	4ee\ 4cc\	.	.	.	4ee\ 4cc\	.	.	.	.	.	8cc'\L	.	8cc\L)	.	.	.	.	.
.	.	.	.	.	.	.	.	.	8G/ 8GG/	.	.	.	.	.	.	.	.	.	.	.	.	.	.	(8gg\	.	(8ggg\	.	.	.	.	.
.	.	4G\	za-	4G/	4e/	4cc\	za-	4GG/	8G/ 8GG/	.	.	.	.	4ee\ 4cc\	.	.	.	4ee\ 4cc\	.	.	.	.	.	8ee\	.	8eee\	.	.	.	.	.
.	.	.	.	.	.	.	.	.	8G/J 8GG/	.	.	.	.	.	.	.	.	.	.	.	.	.	.	8cc\J)	.	8ccc\J	.	.	.	.	.
=17	=17	=17	=17	=17	=17	=17	=17	=17	=17	=17	=17	=17	=17	=17	=17	=17	=17	=17	=17	=17	=17	=17	=17	=17	=17	=17	=17	=17	=17	=17	=17
*	*	*	*	*	*	*	*	*	*	*	*	*^	*	*	*	*	*	*	*	*	*	*	*	*	*	*	*	*^	*	*	*
*	*	*	*	*	*	*	*	*rep	*	*	*	*	*	*	*	*	*	*	*	*	*	*	*	*	*tremolo	*	*	*	*	*	*	*	*
1G/ 1GG/	2cc/ 2g/ 2d/	2GG/	-kwi-	2G/	2d/	2cc\	-kwi-	4GG/	8G/L 8GG/	.	1GG/	1d/	2c\	.	4dd/ 4g/	.	4g\]	.	1dd/ 1g/	.	1d/	.	2cc\]	.	8cc\L	.	2ccc\)	.	1dd/	2cc\	.	2ccc\]	.
.	.	.	.	.	.	.	.	.	8G/ 8GG/	.	.	.	.	.	.	.	.	.	.	.	.	.	.	.	8cc\	.	.	.	.	.	.	.	.
.	.	.	.	.	.	.	.	8GG/L	8G/ 8GG/	.	.	.	.	.	8dd/L 8g/	.	8g\L	.	.	.	.	.	.	.	8cc\	.	.	.	.	.	.	.	.
.	.	.	.	.	.	.	.	8GG/J	8G/ 8GG/	.	.	.	.	.	8dd/J 8g/	.	8g\J	.	.	.	.	.	.	.	8cc\J	.	.	.	.	.	.	.	.
.	2b/ 2g/ 2d/	4GG/	-tnie	4G/	4d/	4b\	-tnie	4GG/	8G/ 8GG/	.	.	.	2B\	.	4dd/ 4g/	.	4g\	.	.	.	.	.	2b\	.	8b\L	.	2bb\	.	.	2b\	.	2bb\	.
.	.	.	.	.	.	.	.	.	8G/ 8GG/	.	.	.	.	.	.	.	.	.	.	.	.	.	.	.	8b\	.	.	.	.	.	.	.	.
.	.	4GG/	na	4G/	4d/	4b\	na	4GG/	8G/ 8GG/	.	.	.	.	.	4dd/ 4g/	.	4g\	.	.	.	.	.	.	.	8b\	.	.	.	.	.	.	.	.
.	.	.	.	.	.	.	.	.	8G/J 8GG/	.	.	.	.	.	.	.	.	.	.	.	.	.	.	.	8b\J	.	.	.	.	.	.	.	.
*	*	*	*	*	*	*	*	*Xrep	*	*	*	*	*	*	*	*	*	*	*	*	*	*	*	*	*	*	*	*	*	*	*	*	*
=18	=18	=18	=18	=18	=18	=18	=18	=18	=18	=18	=18	=18	=18	=18	=18	=18	=18	=18	=18	=18	=18	=18	=18	=18	=18	=18	=18	=18	=18	=18	=18	=18	=18
*	*	*	*	*	*	*	*	*	*	*	*	*	*	*	*	*	*	*	*^	*	*	*	*	*	*	*	*	*	*	*	*	*	*
1c\ 1C\	1cc/ 1g/ 1e/	1C/	źie-	1G/	1e/	1cc\	źie-	4C/	8c\L 8C'\	.	4C/	4e/	4c\	.	4cc/ 4e/	.	4g/ 4c/	.	4cc/ 4e/	4ryy	.	4e/	.	4cc\	.	4cc\	.	4ccc\	.	4ee/	4cc\	.	4ccc\	.
.	.	.	.	.	.	.	.	.	(8e\	.	.	.	.	.	.	.	.	.	.	.	.	.	.	.	.	.	.	.	.	.	.	.	.	.
.	.	.	.	.	.	.	.	4r	8c\	.	4r	4r	4ryy	.	4r	.	4r	.	4r	4ryy	.	4r	.	4r	.	4r	.	4r	.	4r	4ryy	.	4r	.
.	.	.	.	.	.	.	.	.	8G\J)	.	.	.	.	.	.	.	.	.	.	.	.	.	.	.	.	.	.	.	.	.	.	.	.	.
.	.	.	.	.	.	.	.	4C/	8E'\L	.	4C/	4e/	4c\	.	4cc/ 4e/	.	4g/ 4c/	.	4ee/	4cc\	.	4e/	.	4cc/ 4e/	.	4cc\	.	4ccc\	.	4gg\ 4ee\	4ryy	.	4ccc\	.
.	.	.	.	.	.	.	.	.	(8c\	.	.	.	.	.	.	.	.	.	.	.	.	.	.	.	.	.	.	.	.	.	.	.	.	.
.	.	.	.	.	.	.	.	4r	8G\	.	4r	4ryy	4ryy	.	4r	.	4r	.	4r	4ryy	.	4r	.	4r	.	4r	.	4r	.	4ryy	4ryy	.	4ryy	.
.	.	.	.	.	.	.	.	.	8E\J)	.	.	.	.	.	.	.	.	.	.	.	.	.	.	.	.	.	.	.	.	.	.	.	.	.
=19	=19	=19	=19	=19	=19	=19	=19	=19	=19	=19	=19	=19	=19	=19	=19	=19	=19	=19	=19	=19	=19	=19	=19	=19	=19	=19	=19	=19	=19	=19	=19	=19	=19	=19
!LO:TX:t=1. 2.	!	!	!	!	!	!	!	!	!	!	!	!	!	!	!	!	!	!	!	!	!	!	!	!	!	!	!	!	!	!	!	!	!	!
*>B1	*>B1	*>B1	*	*>B1	*>B1	*>B1	*	*>B1	*>B1	*	*>B1	*>B1	*>B1	*	*>B1	*	*>B1	*	*>B1	*>B1	*	*>B1	*	*>B1	*	*>B1	*	*>B1	*	*>B1	*>B1	*	*>B1	*
*	*	*	*	*	*	*	*	*	*	*	*	*	*	*	*	*	*^	*	*	*	*	*	*	*	*	*	*	*	*	*	*	*	*	*
4c\ 4C\	4cc/ 4g/ 4e/	4C/	-mi.	4G/	4e/	4cc\	-mi.	4C/	4C/	.	4C/	4e/	4c\	.	4cc/ 4e/	.	4g/ 4c/	4ryy	.	4ee/	4cc\	.	4e/	.	4cc/ 4e/	.	4cc\	.	4ccc\	.	4gg\ 4ee\	4ryy	.	4ccc\	.
4r	4r	4r	.	4r	4r	4r	.	4r	4r	.	4r	4r	4ryy	.	4r	.	4r	4ryy	.	4r	4ryy	.	4r	.	4r	.	4r	.	4r	.	4r	4ryy	.	4r	.
2G\ 2GG\	2b/ 2g/ 2d/	2r	.	2r	2r	2r	.	2GGTT/	2G/ 2GG/	.	2GG/	2d\ 2G\	4ryy	.	2b/ 2d/	.	2g/	2g\	.	2dd/ 2g/	2ryy	.	2f/	.	2b/ 2f/	.	2b\	.	2bb\	.	2b/	2f\	.	2bb\	.
.	.	.	.	.	.	.	.	.	.	.	.	.	4ryy	.	.	.	.	.	.	.	.	.	.	.	.	.	.	.	.	.	.	.	.	.	.
*	*	*	*	*	*	*	*	*	*	*	*	*	*	*	*	*	*v	*v	*	*	*	*	*	*	*	*	*	*	*	*	*v	*v	*	*	*
*	*	*	*	*	*	*	*	*	*	*	*	*v	*v	*	*	*	*	*	*v	*v	*	*	*	*	*	*	*	*	*	*	*	*	*
=20:|!	=20:|!	=20:|!	=20:|!	=20:|!	=20:|!	=20:|!	=20:|!	=20:|!	=20:|!	=20:|!	=20:|!	=20:|!	=20:|!	=20:|!	=20:|!	=20:|!	=20:|!	=20:|!	=20:|!	=20:|!	=20:|!	=20:|!	=20:|!	=20:|!	=20:|!	=20:|!	=20:|!	=20:|!	=20:|!	=20:|!	=20:|!
!LO:TX:t=3.	!	!	!	!	!	!	!	!	!	!	!	!	!	!	!	!	!	!	!	!	!	!	!	!	!	!	!	!	!	!	!
*>B2	*>B2	*>B2	*	*>B2	*>B2	*>B2	*	*>B2	*>B2	*	*>B2	*>B2	*	*>B2	*	*>B2	*	*>B2	*	*>B2	*	*>B2	*	*>B2	*	*>B2	*	*>B2	*	*>B2	*
[1c\ [1C\	[1cc/ [1g/ [1e/	1r	.	1r	1r	1r	.	4C/	4c\ 4C\	.	4C/	4c/ 4E/	.	4cc/ 4e/	.	4g/ 4c/	.	4cc/ 4e/	.	4e/	.	4cc/ 4e/	.	4cc\	.	4ccc\	.	4gg\ 4ee\	.	4ccc\	.
.	.	.	.	.	.	.	.	4r	4r	.	4r	4r	.	4r	.	4r	.	4r	.	4r	.	4r	.	4r	.	4r	.	4r	.	4r	.
.	.	.	.	.	.	.	.	4C/	4c\ 4C\	.	4C/	4c/ 4E/	.	4cc/ 4e/	.	4g/ 4c/	.	4ee/ 4g/	.	4g/	.	4ee\ 4g\	.	4ee\	.	4eee\	.	4ccc\ 4ee\	.	4eee\	.
.	.	.	.	.	.	.	.	4r	4r	.	4r	4r	.	4r	.	4r	.	4r	.	4r	.	4r	.	4r	.	4r	.	4r	.	4r	.
=21	=21	=21	=21	=21	=21	=21	=21	=21	=21	=21	=21	=21	=21	=21	=21	=21	=21	=21	=21	=21	=21	=21	=21	=21	=21	=21	=21	=21	=21	=21	=21
*>C	*>C	*>C	*	*>C	*>C	*>C	*	*>C	*>C	*	*>C	*>C	*	*>C	*	*>C	*	*>C	*	*>C	*	*>C	*	*>C	*	*>C	*	*>C	*	*>C	*
4c\] 4C\]	4cc/] 4g/] 4e/]	1r	.	1r	1r	1r	.	4C/	4c\ 4C\	.	4C/	4c/ 4E/	.	4cc/ 4e/	.	4g/ 4c/	.	4cc/ 4e/	.	4e/	.	4cc/ 4e/	.	4cc\	.	4ccc\	.	4gg\ 4ee\	.	4ccc\	.
4r	4r	.	.	.	.	.	.	4r	4r	.	4r	4r	.	4r	.	4r	.	4r	.	4r	.	4r	.	4r	.	4r	.	4r	.	4r	.
2r	2r	.	.	.	.	.	.	2r	2r	.	2r	2r	.	2r	.	2r	.	2r	.	2r	.	2r	.	2r	.	2r	.	2r	.	2r	.
==	==	==	==	==	==	==	==	==	==	==	==	==	==	==	==	==	==	==	==	==	==	==	==	==	==	==	==	==	==	==	==
*-	*-	*-	*-	*-	*-	*-	*-	*-	*-	*-	*-	*-	*-	*-	*-	*-	*-	*-	*-	*-	*-	*-	*-	*-	*-	*-	*-	*-	*-	*-	*-
!!!system-decoration: {(p1,p2,p3)}{(p4,p5,p6)}{(p7,p8)}(p9){(p10,p11)}(p12)(p13){g1}{(p18)}
!!!RDF**kern: > = above
!!!RDF**kern: < = below
!!!EED: Andrzej Borzym
!!!EEV: 2021-04-25
!!!ENC: Krzysztof Stępień
!!!END: 2021-04-08
